icons/dark/css.svg

<svg width="16" height="16" viewBox="0 0 16 16" fill="none" xmlns="http://www.w3.org/2000/svg">
<path d="M9.70703 1.29297L12.707 4.29297L13 5V14L12 15H10V14H12V6H8V2H3V10H2V2L3 1H9L9.70703 1.29297ZM9 5H12L9 2V5Z" fill="#C5C5C5"/>
<path d="M1.8359 11.3564C2.0906 11.3564 2.30684 11.3906 2.48462 11.459C2.6641 11.5256 2.82821 11.6205 2.97692 11.7436L2.5641 12.241C2.46667 12.1607 2.35897 12.0974 2.24103 12.0513C2.12308 12.0034 1.99487 11.9795 1.85641 11.9795C1.70769 11.9795 1.57179 12.0222 1.44872 12.1077C1.32564 12.1915 1.22735 12.3248 1.15385 12.5077C1.08034 12.6889 1.04359 12.9248 1.04359 13.2154C1.04359 13.5009 1.07863 13.7342 1.14872 13.9154C1.22051 14.0949 1.3188 14.2274 1.44359 14.3128C1.56838 14.3966 1.71111 14.4385 1.87179 14.4385C2.04957 14.4385 2.19744 14.4051 2.31538 14.3385C2.43333 14.2718 2.54188 14.1991 2.64103 14.1205L3.02308 14.6077C2.88974 14.7393 2.72564 14.8521 2.53077 14.9462C2.3359 15.0402 2.10085 15.0872 1.82564 15.0872C1.50427 15.0872 1.2188 15.0162 0.969231 14.8744C0.721367 14.7308 0.526496 14.5205 0.384615 14.2436C0.244444 13.965 0.174359 13.6222 0.174359 13.2154C0.174359 12.8188 0.247009 12.4821 0.392308 12.2051C0.539316 11.9282 0.738462 11.7179 0.989744 11.5744C1.24103 11.4291 1.52308 11.3564 1.8359 11.3564ZM5.98899 13.9615C5.98899 14.1821 5.93087 14.3769 5.81463 14.5462C5.7001 14.7154 5.53515 14.8479 5.31976 14.9436C5.10438 15.0393 4.8454 15.0872 4.54284 15.0872C4.2078 15.0872 3.9266 15.0385 3.69925 14.941C3.47361 14.8419 3.28643 14.7197 3.13771 14.5744L3.56335 14.1026C3.69498 14.2171 3.84027 14.306 3.99925 14.3692C4.15822 14.4308 4.33258 14.4615 4.52233 14.4615C4.64027 14.4615 4.74369 14.4444 4.83258 14.4103C4.92147 14.3761 4.9907 14.3265 5.04027 14.2615C5.08985 14.1966 5.11463 14.1179 5.11463 14.0256C5.11463 13.9385 5.09498 13.865 5.05566 13.8051C5.01634 13.7453 4.94968 13.6915 4.85566 13.6436C4.76335 13.5957 4.63429 13.547 4.46848 13.4974C4.19156 13.412 3.96848 13.3179 3.79925 13.2154C3.63173 13.1128 3.50951 12.994 3.43258 12.859C3.35737 12.7239 3.31976 12.5667 3.31976 12.3872C3.31976 12.1701 3.37959 11.9846 3.49925 11.8308C3.62062 11.6769 3.78301 11.5598 3.98643 11.4795C4.18985 11.3974 4.41378 11.3564 4.65822 11.3564C4.93344 11.3564 5.17617 11.3966 5.38643 11.4769C5.59668 11.5556 5.77874 11.6684 5.93258 11.8154L5.53515 12.2718C5.41549 12.1709 5.28643 12.0966 5.14797 12.0487C5.00951 11.9991 4.86848 11.9744 4.72489 11.9744C4.61891 11.9744 4.52574 11.988 4.4454 12.0154C4.36506 12.041 4.30267 12.0795 4.25822 12.1308C4.21378 12.1821 4.19156 12.2462 4.19156 12.3231C4.19156 12.3983 4.21292 12.4615 4.25566 12.5128C4.29839 12.5641 4.37275 12.6128 4.47874 12.659C4.58472 12.7034 4.73173 12.7556 4.91976 12.8154C5.14369 12.8838 5.33515 12.9658 5.49412 13.0615C5.6548 13.1556 5.77703 13.2744 5.86079 13.4179C5.94626 13.5615 5.98899 13.7427 5.98899 13.9615ZM9.06516 13.9615C9.06516 14.1821 9.00704 14.3769 8.89081 14.5462C8.77628 14.7154 8.61132 14.8479 8.39593 14.9436C8.18055 15.0393 7.92157 15.0872 7.61901 15.0872C7.28397 15.0872 7.00277 15.0385 6.77542 14.941C6.54978 14.8419 6.3626 14.7197 6.21388 14.5744L6.63952 14.1026C6.77115 14.2171 6.91645 14.306 7.07542 14.3692C7.23439 14.4308 7.40875 14.4615 7.5985 14.4615C7.71645 14.4615 7.81986 14.4444 7.90875 14.4103C7.99764 14.3761 8.06687 14.3265 8.11645 14.2615C8.16602 14.1966 8.19081 14.1179 8.19081 14.0256C8.19081 13.9385 8.17115 13.865 8.13183 13.8051C8.09251 13.7453 8.02585 13.6915 7.93183 13.6436C7.83952 13.5957 7.71046 13.547 7.54465 13.4974C7.26773 13.412 7.04465 13.3179 6.87542 13.2154C6.7079 13.1128 6.58568 12.994 6.50875 12.859C6.43354 12.7239 6.39593 12.5667 6.39593 12.3872C6.39593 12.1701 6.45576 11.9846 6.57542 11.8308C6.69679 11.6769 6.85918 11.5598 7.0626 11.4795C7.26602 11.3974 7.48995 11.3564 7.73439 11.3564C8.00961 11.3564 8.25234 11.3966 8.4626 11.4769C8.67286 11.5556 8.85491 11.6684 9.00875 11.8154L8.61132 12.2718C8.49166 12.1709 8.3626 12.0966 8.22414 12.0487C8.08568 11.9991 7.94465 11.9744 7.80106 11.9744C7.69508 11.9744 7.60192 11.988 7.52157 12.0154C7.44123 12.041 7.37884 12.0795 7.33439 12.1308C7.28995 12.1821 7.26773 12.2462 7.26773 12.3231C7.26773 12.3983 7.2891 12.4615 7.33183 12.5128C7.37457 12.5641 7.44892 12.6128 7.55491 12.659C7.66089 12.7034 7.8079 12.7556 7.99593 12.8154C8.21987 12.8838 8.41132 12.9658 8.57029 13.0615C8.73098 13.1556 8.8532 13.2744 8.93696 13.4179C9.02243 13.5615 9.06516 13.7427 9.06516 13.9615Z" fill="#C5C5C5"/>
</svg>

<svg xmlns="http://www.w3.org/2000/svg" width="16" height="16" fill="#c5c5c5" xmlns:v="https://vecta.io/nano"><path d="M9.707 1.293l3 3L13 5v9l-1 1h-2v-1h2V6H8V2H3v8H2V2l1-1h6l.707.293zM9 5h3L9 2v3zm-7.164 6.356a1.8 1.8 0 0 1 .649.103 1.69 1.69 0 0 1 .492.285l-.413.497a1.18 1.18 0 0 0-.323-.19 1.01 1.01 0 0 0-.385-.072.7.7 0 0 0-.408.128c-.123.084-.221.217-.295.4s-.11.417-.11.708a1.97 1.97 0 0 0 .105.7.82.82 0 0 0 .295.397.75.75 0 0 0 .428.126.89.89 0 0 0 .444-.1 2.52 2.52 0 0 0 .326-.218l.382.487a1.82 1.82 0 0 1-.492.338c-.195.094-.43.141-.705.141-.321 0-.607-.071-.856-.213a1.48 1.48 0 0 1-.585-.631c-.142-.277-.21-.621-.21-1.028 0-.397.073-.733.218-1.01s.346-.487.597-.631a1.66 1.66 0 0 1 .846-.218zm4.153 2.605a1.01 1.01 0 0 1-.174.585 1.13 1.13 0 0 1-.495.397c-.216.095-.474.144-.777.144-.335 0-.616-.049-.844-.146s-.413-.221-.562-.367l.426-.472a1.51 1.51 0 0 0 .436.267c.159.062.333.092.523.092.118 0 .221-.017.31-.051s.158-.084.208-.149.074-.144.074-.236c0-.087-.02-.161-.059-.221s-.106-.114-.2-.162a2.31 2.31 0 0 0-.387-.146c-.277-.085-.5-.18-.669-.282s-.29-.221-.367-.356-.113-.292-.113-.472a.88.88 0 0 1 .179-.556c.119-.153.284-.271.487-.351a1.78 1.78 0 0 1 .672-.123c.275 0 .518.04.728.12s.392.191.546.338l-.397.456a1.22 1.22 0 0 0-.387-.223 1.28 1.28 0 0 0-.423-.074c-.106 0-.199.014-.279.041s-.143.064-.187.115-.067.115-.067.192.021.138.064.19.117.1.223.146.253.097.441.156a2.57 2.57 0 0 1 .574.246c.161.094.283.213.367.356s.128.325.128.544zm3.076 0a1.01 1.01 0 0 1-.174.585 1.13 1.13 0 0 1-.495.397c-.216.095-.474.144-.777.144-.335 0-.616-.049-.844-.146s-.413-.221-.562-.367l.426-.472a1.51 1.51 0 0 0 .436.267c.159.062.333.092.523.092.118 0 .221-.017.31-.051s.158-.084.208-.149.074-.144.074-.236c0-.087-.02-.161-.059-.221s-.106-.114-.2-.162a2.31 2.31 0 0 0-.387-.146c-.277-.085-.5-.18-.669-.282s-.29-.221-.367-.356-.113-.292-.113-.472a.88.88 0 0 1 .179-.556c.119-.153.284-.271.487-.351a1.78 1.78 0 0 1 .672-.123c.275 0 .518.04.728.12s.392.191.546.338l-.397.456a1.22 1.22 0 0 0-.387-.223 1.28 1.28 0 0 0-.423-.074c-.106 0-.199.014-.279.041s-.143.064-.187.115-.067.115-.067.192.021.138.064.19.117.1.223.146.253.097.441.156a2.57 2.57 0 0 1 .574.246c.161.094.283.213.367.356s.128.325.128.544z"/></svg>
